build/images/content/reasons/icon_1.svg

<svg width="220" height="129" viewBox="0 0 220 129" fill="none" xmlns="http://www.w3.org/2000/svg">
<g>
<path d="M11.5729 97.2603C9.10493 96.974 4.26134 99.0613 1.31728 115.474C-1.62677 131.886 3.40631 128.372 3.679 128.28C3.84538 128.224 5.76341 126.811 7.47808 125.814C8.26471 125.361 9.09076 124.981 9.94609 124.678" stroke="white" stroke-opacity="0.8" stroke-width="2" stroke-linecap="round" stroke-linejoin="round"/>
<path d="M25.151 118.222C22.5859 118.319 20.6863 120.406 18.2183 123.154C15.7503 125.901 14.1373 126.566 11.6693 125.998C8.21224 125.186 7.3757 116.61 9.68658 104.372C11.9975 92.1343 16.7717 89.1649 19.0734 88.7031C19.5921 88.5833 20.13 88.5719 20.6533 88.6697C21.1766 88.7674 21.6741 88.9722 22.1145 89.2711C24.1111 90.6934 25.0585 92.3051 26.482 94.3925" stroke="white" stroke-opacity="0.8" stroke-width="2" stroke-linecap="round" stroke-linejoin="round"/>
<path d="M48.6944 87.2022C45.3714 83.4062 41.6555 80.6769 37.8703 81.4158C33.5027 82.2702 26.4638 91.5155 24.2962 101.052C22.8727 107.314 22.8172 117.136 26.3852 119.362C30.1843 121.736 33.4103 120.692 36.2619 118.983C39.1135 117.275 40.916 113.954 46.0415 113.954C51.1671 113.954 53.6305 111.793 53.6305 111.793" stroke="white" stroke-opacity="0.8" stroke-width="2" stroke-linecap="round" stroke-linejoin="round"/>
<path d="M53.9182 79.9935C51.4502 80.7508 49.1532 81.5267 48.7927 85.8768C48.3305 91.5663 48.9729 107.466 54.6808 112.818C56.6034 114.624 58.7664 115.589 64.4604 115.003C71.2082 114.328 75.4926 110.283 76.8005 109.119C78.7278 107.411 79.8925 106.704 80.4609 104.501C80.9231 102.714 80.1282 86.9528 76.5602 80.9494C76.1945 80.2836 75.6741 79.7154 75.0427 79.2927C74.4113 78.8699 73.6874 78.6051 72.9321 78.5203C66.7805 77.7076 59.3303 78.6635 53.9182 79.9935Z" stroke="white" stroke-opacity="0.8" stroke-width="2" stroke-linecap="round" stroke-linejoin="round"/>
<path d="M86.4083 76.7701C83.9403 77.5275 80.8067 78.1001 81.2828 84.0758C81.7588 90.0515 82.3273 104.021 84.3193 107.794C85.6386 110.197 87.6344 112.16 90.0596 113.441C92.4847 114.721 95.2325 115.263 97.9627 114.998C105.085 114.333 108.671 111.091 110.21 109.212C111.92 107.124 112.586 103.518 112.392 100.105C112.198 96.6923 111.537 79.7118 111.537 79.7118C111.537 79.7118 111.999 73.9254 105.459 74.2117C98.9194 74.498 90.8498 75.8188 86.4083 76.7701Z" stroke="white" stroke-opacity="0.8" stroke-width="2" stroke-linecap="round" stroke-linejoin="round"/>
<path d="M121.469 76.3776C118.695 76.3776 117.388 78.2756 117.101 82.5426C116.814 86.8097 116.911 96.3967 117.859 103.033C118.806 109.669 124.597 115.552 129.155 116.425C133.712 117.298 139.646 116.624 142.775 111.807C145.904 106.99 149.513 93.5936 150.465 87.5209C151.418 81.4482 149.333 78.0816 145.345 77.6198C141.356 77.158 126.123 76.3776 121.469 76.3776Z" stroke="white" stroke-opacity="0.8" stroke-width="2" stroke-linecap="round" stroke-linejoin="round"/>
<path d="M161.05 80.1598C155.924 79.698 155.106 80.8478 154.348 84.5469C153.59 88.2459 152.268 95.3993 149.726 101.864C148.515 104.945 148.58 107.355 151.039 108.454C153.211 109.424 154.075 110.445 155.693 112.911C158.045 116.508 165.283 121.071 172.308 118.129C179.333 115.188 181.612 107.886 182.37 100.484C183.128 93.081 184.334 86.3248 178.987 84.3206C173.889 82.4226 165.131 80.4461 161.05 80.1598Z" stroke="white" stroke-opacity="0.8" stroke-width="2" stroke-linecap="round" stroke-linejoin="round"/>
<path d="M182.657 88.2413C182.657 88.2413 187.501 83.3093 193.749 85.2996C199.998 87.29 204.379 97.2511 206.094 107.309C207.809 117.367 201.158 124.479 195.177 123.435C188.933 122.345 186.105 115.963 182.172 115.086C180.518 114.74 178.826 114.613 177.139 114.707" stroke="white" stroke-opacity="0.8" stroke-width="2" stroke-linecap="round" stroke-linejoin="round"/>
<path d="M201.551 92.9887C202.167 92.1589 203.073 91.5904 204.089 91.3955C205.104 91.2005 206.156 91.3933 207.037 91.9358C209.81 93.4689 216.34 99.6202 217.764 112.615C219.187 125.61 214.441 126.275 212.731 126.275C211.021 126.275 207.286 125.352 205.336 121.911C204.199 119.921 203.534 119.538 203.534 119.538" stroke="white" stroke-opacity="0.8" stroke-width="2" stroke-linecap="round" stroke-linejoin="round"/>
<path d="M39.9358 61.7892C39.9358 61.7892 40.5505 65.1558 37.7451 68.8179C34.9397 72.48 31.2746 74.6366 28.0394 74.849C24.8042 75.0614 23.0803 70.9699 18.7682 70.9699C16.3972 70.9699 14.4191 72.189 11.6461 72.6508C9.47845 73.011 2.46263 71.815 0.655529 62.7821C-0.268821 58.1133 1.1177 52.9272 1.5198 50.9322C1.94962 48.7756 3.89075 42.9615 3.89075 42.9615C3.89075 42.9615 4.75502 40.3754 6.26171 40.5925" stroke="white" stroke-opacity="0.8" stroke-width="2" stroke-linecap="round" stroke-linejoin="round"/>
<path d="M17.0256 33.9795C15.2115 33.5056 13.4919 32.7246 11.9417 31.6704C10.3565 30.5483 8.42456 33.0559 7.56492 36.076C6.70527 39.0962 4.97674 45.3398 6.05361 51.588C7.13047 57.8362 12.5241 64.2968 15.9719 64.2968C19.4197 64.2968 23.302 60.8518 27.8313 64.2968C32.3606 67.7419 34.0845 66.6659 37.1025 64.2968C42.0016 60.45 46.4893 55.8458 47.2704 50.8584" stroke="white" stroke-opacity="0.8" stroke-width="2" stroke-linecap="round" stroke-linejoin="round"/>
<path d="M39.6022 51.6988C39.6022 51.6988 39.2694 52.5808 36.8799 53.957C34.4905 55.3332 34.7771 59.8865 31.4078 61.4567C28.9906 62.5835 26.9016 62.3803 20.4958 54.816C13.2258 46.231 18.9845 20.7811 18.9845 20.7811C18.9845 20.7811 19.9089 14.8146 25.1684 16.3155C25.1684 16.3155 28.6532 17.0959 35.7661 20.975" stroke="white" stroke-opacity="0.8" stroke-width="2" stroke-linecap="round" stroke-linejoin="round"/>
<path d="M66.3762 24.434C65.7153 20.4948 64.0006 17.0451 60.7885 14.7823C55.797 11.2818 52.6681 8.95897 48.2035 8.75116C43.7389 8.54335 39.7272 11.3326 37.0743 18.0103C34.4214 24.688 32.4757 39.5534 34.4122 45.3675C36.3487 51.1816 42.6066 52.7564 44.3351 52.4747C46.4195 52.1375 49.1741 48.3831 53.5324 48.166C57.8907 47.949 62.4847 48.166 63.9359 44.721C64.3695 43.6951 64.7339 42.6414 65.0267 41.5669" stroke="white" stroke-opacity="0.8" stroke-width="2" stroke-linecap="round" stroke-linejoin="round"/>
<path d="M86.6839 1.39462C77.7686 2.38749 73.2393 6.01265 70.5078 9.14829C68.4504 11.5691 67.2399 14.5947 67.06 17.7655C67.06 17.7655 64.9062 38.4451 64.9062 45.1227C64.9062 52.0498 70.0965 52.6547 74.1775 52.8764C78.2585 53.0981 98.4417 54.1048 104.26 50.6598C104.26 50.6598 107.926 49.3667 108.355 41.8255C108.85 33.199 107.63 19.6266 107.2 12.7319C106.77 5.83716 103.507 3.99919 100.503 2.80774C98.0858 1.84257 92.2901 0.960524 86.6839 1.39462Z" stroke="white" stroke-opacity="0.8" stroke-width="2" stroke-linecap="round" stroke-linejoin="round"/>
<path d="M127.218 0.748395C123.336 1.17787 118.594 3.33449 116.87 10.0122C115.146 16.6898 112.641 40.5512 112.983 44.7166C113.339 49.0576 114.074 50.914 121.186 51.99C128.299 53.066 148.164 54.4745 155.461 51.5883C162.274 48.8913 160.85 41.2485 160.85 41.2485C160.85 41.2485 157.855 17.2763 154.842 10.5986C151.829 3.92098 143.107 0.92388 138.204 0.535965C134.544 0.226249 130.863 0.297441 127.218 0.748395V0.748395Z" stroke="white" stroke-opacity="0.8" stroke-width="2" stroke-linecap="round" stroke-linejoin="round"/>
<path d="M158.66 26.3597C158.66 26.3597 162.667 9.12058 171.296 7.57816C171.296 7.57816 177.766 6.04036 181.311 11.582C184.856 17.1236 188.974 27.7959 190.093 39.4426C191.17 50.6782 188.091 50.9876 184.547 51.14C180.059 51.334 166.984 51.6018 163.287 47.9074C162.323 46.8903 161.523 45.7296 160.916 44.467" stroke="white" stroke-opacity="0.8" stroke-width="2" stroke-linecap="round" stroke-linejoin="round"/>
<path d="M186.39 22.6653C186.39 22.6653 190.702 15.124 193.785 13.2768C196.867 11.4296 200.717 11.582 203.49 19.4327C206.263 27.2833 213.145 47.1408 204.877 58.5335C198.406 67.4602 192.708 58.6859 192.708 58.6859C192.708 58.6859 189.2 54.4373 184.389 54.6821C178.38 54.9915 175.76 51.1401 175.76 51.1401" stroke="white" stroke-opacity="0.8" stroke-width="2" stroke-linecap="round" stroke-linejoin="round"/>
<path d="M176.684 52.2206C176.684 52.2206 176.836 58.2241 183.307 62.9945C187.392 66.0101 189.911 67.0214 191.778 64.8417C192.703 63.7657 193.627 62.5327 197.015 62.2233" stroke="white" stroke-opacity="0.8" stroke-width="2" stroke-linecap="round" stroke-linejoin="round"/>
<path d="M207.152 31.1486C209.615 31.7628 210.119 29.4353 212.892 29.8971C214.278 30.128 215.355 32.0537 215.512 33.9009C215.512 33.9009 217.624 49.3713 215.822 58.3765C215.207 61.4567 214.435 66.3795 211.815 67.6125C209.194 68.8455 207.193 67.3031 204.882 64.5323C202.571 61.7615 200.723 62.2233 200.723 62.2233" stroke="white" stroke-opacity="0.8" stroke-width="2" stroke-linecap="round" stroke-linejoin="round"/>
<path d="M183.312 62.9945C183.312 62.9945 186.086 70.0739 189.168 72.6923C192.251 75.3108 195.639 75.4632 198.259 74.2301C200.88 72.9971 202.266 70.8451 206.578 71.7687C210.89 72.6923 214.126 74.6919 216.746 69.4597C219.367 64.2275 219.981 61.7615 219.519 55.915C219.209 51.9103 218.164 47.9967 216.437 44.37" stroke="white" stroke-opacity="0.8" stroke-width="2" stroke-linecap="round" stroke-linejoin="round"/>
</g>
</svg>

<svg width="220" height="129" fill="none" xmlns="http://www.w3.org/2000/svg"><g stroke="#fff" stroke-opacity=".8" stroke-width="2" stroke-linecap="round" stroke-linejoin="round"><path d="M11.573 97.26c-2.468-.286-7.312 1.801-10.256 18.214-2.944 16.412 2.09 12.898 2.362 12.806.166-.056 2.084-1.469 3.8-2.466a14.945 14.945 0 012.467-1.136"/><path d="M25.151 118.222c-2.565.097-4.465 2.184-6.933 4.932-2.468 2.747-4.08 3.412-6.549 2.844-3.457-.812-4.293-9.388-1.982-21.626 2.31-12.238 7.085-15.207 9.386-15.669a3.865 3.865 0 013.041.568c1.997 1.422 2.944 3.034 4.368 5.121"/><path d="M48.694 87.202c-3.323-3.796-7.038-6.525-10.824-5.786-4.367.854-11.406 10.1-13.574 19.636-1.423 6.262-1.479 16.084 2.09 18.31 3.798 2.374 7.024 1.33 9.876-.379 2.852-1.708 4.654-5.029 9.78-5.029 5.125 0 7.588-2.161 7.588-2.161"/><path d="M53.918 79.993c-2.468.758-4.765 1.534-5.125 5.884-.462 5.69.18 21.589 5.888 26.941 1.922 1.806 4.085 2.771 9.78 2.185 6.747-.675 11.032-4.72 12.34-5.884 1.927-1.708 3.091-2.415 3.66-4.618.462-1.787-.333-17.548-3.9-23.552a4.74 4.74 0 00-3.629-2.429c-6.151-.812-13.602.144-19.014 1.474zm32.49-3.223c-2.468.758-5.601 1.33-5.125 7.306s1.044 19.945 3.036 23.718a14.015 14.015 0 0013.644 7.204c7.122-.665 10.708-3.907 12.247-5.786 1.71-2.088 2.376-5.694 2.182-9.107-.194-3.413-.855-20.393-.855-20.393s.462-5.787-6.078-5.5c-6.54.286-14.61 1.607-19.05 2.558zm35.061-.392c-2.774 0-4.081 1.898-4.368 6.165-.287 4.267-.19 13.854.758 20.49.947 6.636 6.738 12.519 11.296 13.392 4.557.873 10.491.199 13.62-4.618 3.129-4.817 6.738-18.213 7.69-24.286.953-6.073-1.132-9.44-5.12-9.901-3.989-.462-19.222-1.242-23.876-1.242zm39.581 3.782c-5.126-.462-5.944.688-6.702 4.387s-2.08 10.852-4.622 17.317c-1.211 3.081-1.146 5.491 1.313 6.59 2.172.97 3.036 1.991 4.654 4.457 2.352 3.597 9.59 8.16 16.615 5.218 7.025-2.941 9.304-10.243 10.062-17.645.758-7.403 1.964-14.16-3.383-16.163-5.098-1.898-13.856-3.875-17.937-4.161z"/><path d="M182.657 88.241s4.844-4.932 11.092-2.941c6.249 1.99 10.63 11.951 12.345 22.009 1.715 10.058-4.936 17.17-10.917 16.126-6.244-1.09-9.072-7.472-13.005-8.349a19.328 19.328 0 00-5.033-.379"/><path d="M201.551 92.989a4.13 4.13 0 015.486-1.053c2.773 1.533 9.303 7.684 10.727 20.679 1.423 12.995-3.323 13.66-5.033 13.66-1.71 0-5.445-.923-7.395-4.364-1.137-1.99-1.802-2.373-1.802-2.373M39.936 61.79s.614 3.366-2.19 7.028c-2.806 3.662-6.471 5.819-9.707 6.031-3.235.212-4.959-3.88-9.27-3.88-2.372 0-4.35 1.22-7.123 1.682-2.168.36-9.183-.836-10.99-9.869-.925-4.669.462-9.855.864-11.85.43-2.156 2.37-7.97 2.37-7.97s.865-2.587 2.372-2.37"/><path d="M17.026 33.98a16.422 16.422 0 01-5.084-2.31c-1.585-1.122-3.517 1.386-4.377 4.406-.86 3.02-2.588 9.264-1.511 15.512 1.076 6.248 6.47 12.709 9.918 12.709 3.448 0 7.33-3.445 11.86 0 4.529 3.445 6.252 2.369 9.27 0 4.9-3.847 9.387-8.451 10.168-13.439"/><path d="M39.602 51.699s-.333.882-2.722 2.258c-2.39 1.376-2.103 5.93-5.472 7.5-2.417 1.127-4.506.923-10.912-6.641-7.27-8.585-1.511-34.035-1.511-34.035s.924-5.966 6.183-4.465c0 0 3.485.78 10.598 4.659"/><path d="M66.376 24.434c-.66-3.94-2.375-7.389-5.588-9.652-4.991-3.5-8.12-5.823-12.584-6.03-4.465-.209-8.477 2.58-11.13 9.258-2.653 6.678-4.598 21.543-2.662 27.357 1.937 5.815 8.195 7.39 9.923 7.108 2.084-.337 4.84-4.092 9.197-4.309 4.359-.217 8.953 0 10.404-3.445.434-1.026.798-2.08 1.09-3.154"/><path d="M86.684 1.395c-8.915.992-13.445 4.618-16.176 7.753a14.582 14.582 0 00-3.448 8.617s-2.154 20.68-2.154 27.358c0 6.927 5.19 7.532 9.271 7.753 4.081.222 24.265 1.229 30.083-2.216 0 0 3.666-1.293 4.095-8.834.495-8.627-.725-22.2-1.155-29.094-.43-6.895-3.693-8.733-6.697-9.924-2.417-.965-8.213-1.847-13.82-1.413zm40.534-.647c-3.882.43-8.624 2.586-10.348 9.264-1.724 6.678-4.229 30.54-3.887 34.705.356 4.34 1.091 6.197 8.203 7.273 7.113 1.076 26.978 2.484 34.275-.402 6.813-2.697 5.389-10.34 5.389-10.34s-2.995-23.972-6.008-30.65C151.829 3.922 143.107.925 138.204.537a53.04 53.04 0 00-10.986.212v0z"/><path d="M158.66 26.36s4.007-17.24 12.636-18.782c0 0 6.47-1.538 10.015 4.004 3.545 5.542 7.663 16.214 8.782 27.86 1.077 11.236-2.002 11.546-5.546 11.698-4.488.194-17.563.462-21.26-3.233a13.513 13.513 0 01-2.371-3.44"/><path d="M186.39 22.665s4.312-7.541 7.395-9.388c3.082-1.847 6.932-1.695 9.705 6.156 2.773 7.85 9.655 27.708 1.387 39.1-6.471 8.927-12.169.153-12.169.153s-3.508-4.249-8.319-4.004c-6.009.31-8.629-3.542-8.629-3.542"/><path d="M176.684 52.22s.152 6.004 6.623 10.775c4.085 3.015 6.604 4.026 8.471 1.847.925-1.076 1.849-2.31 5.237-2.619m10.137-31.074c2.463.614 2.967-1.714 5.74-1.252 1.386.231 2.463 2.157 2.62 4.004 0 0 2.112 15.47.31 24.475-.615 3.08-1.387 8.003-4.007 9.236-2.621 1.234-4.622-.309-6.933-3.08-2.311-2.77-4.159-2.309-4.159-2.309"/><path d="M183.312 62.995s2.774 7.079 5.856 9.697c3.083 2.619 6.471 2.771 9.091 1.538 2.621-1.233 4.007-3.385 8.319-2.461 4.312.923 7.548 2.923 10.168-2.31 2.621-5.231 3.235-7.698 2.773-13.544a32.729 32.729 0 00-3.082-11.545"/></g></svg>
